ui/StatusQ/src/assets/img/icons/keycard-logo.svg

<svg fill="none" height="24" viewBox="0 0 24 24" width="24" xmlns="http://www.w3.org/2000/svg"><path clip-rule="evenodd" d="m9.25 21.25c0 .4142.33579.75.75.75.4142 0 .75-.3358.75-.75v-1.7321c0-.1326.0527-.2598.1464-.3536l.3102-.3101c.2172-.2173.5772-.189.7579.0595l1.9451 2.6745c.1882.2587.4888.4118.8087.4118h.3637c.4086 0 .6447-.4636.4044-.7941l-2.541-3.4937c-.1447-.199-.1231-.4737.0509-.6477l2.2109-2.2109c.315-.315.0919-.8536-.3535-.8536h-.5c-.2652 0-.5196.1054-.7071.2929l-2.043 2.043c-.315.315-.8536.0919-.8536-.3536v-4.6214c0-.2442.1775-.4498.4134-.5127 1.9214-.5128 3.3366-2.26524 3.3366-4.3482 0-2.48528-2.0147-4.5-4.5-4.5-2.48528 0-4.5 2.01472-4.5 4.5 0 2.08296 1.41522 3.8354 3.33657 4.3482.23596.0629.41343.2685.41343.5127zm3.75-14.75c0 1.65685-1.3431 3-3 3-1.65685 0-3-1.34315-3-3s1.34315-3 3-3c1.6569 0 3 1.34315 3 3z" fill="#000" fill-rule="evenodd"/></svg>

<svg width="24" height="24" viewBox="0 0 24 24" fill="none" xmlns="http://www.w3.org/2000/svg">
<path fill-rule="evenodd" clip-rule="evenodd" d="M9.25 21.25C9.25 21.6642 9.58579 22 10 22C10.4142 22 10.75 21.6642 10.75 21.25V19.5179C10.75 19.3853 10.8027 19.2581 10.8964 19.1643L11.2066 18.8542C11.4238 18.6369 11.7838 18.6652 11.9645 18.9137L13.9096 21.5882C14.0978 21.8469 14.3984 22 14.7183 22H15.082C15.4906 22 15.7267 21.5364 15.4864 21.2059L12.9454 17.7122C12.8007 17.5132 12.8223 17.2385 12.9963 17.0645L15.2072 14.8536C15.5222 14.5386 15.2991 14 14.8537 14H14.3537C14.0885 14 13.8341 14.1054 13.6466 14.2929L11.6036 16.3359C11.2886 16.6509 10.75 16.4278 10.75 15.9823V11.3609C10.75 11.1167 10.9275 10.9111 11.1634 10.8482C13.0848 10.3354 14.5 8.58296 14.5 6.5C14.5 4.01472 12.4853 2 10 2C7.51472 2 5.5 4.01472 5.5 6.5C5.5 8.58296 6.91522 10.3354 8.83657 10.8482C9.07253 10.9111 9.25 11.1167 9.25 11.3609V21.25ZM13 6.5C13 8.15685 11.6569 9.5 10 9.5C8.34315 9.5 7 8.15685 7 6.5C7 4.84315 8.34315 3.5 10 3.5C11.6569 3.5 13 4.84315 13 6.5Z" fill="black"/>
</svg>
